header_icon_3.svg

<svg width="20" height="20" viewBox="0 0 20 20" fill="none" xmlns="http://www.w3.org/2000/svg">
<g clip-path="url(#clip0_241_318)">
<path d="M3.07031 13.1498V13.0898C3.07031 12.5898 3.07031 12.0898 3.07031 11.5798C3.07031 11.5298 3.07031 11.5198 3.14031 11.4998L3.82031 11.3298C3.83848 11.3259 3.85534 11.3174 3.86933 11.3051C3.88332 11.2929 3.89398 11.2773 3.90031 11.2598C3.96031 11.0998 4.03031 10.9398 4.10031 10.7798C4.11167 10.7656 4.11786 10.748 4.11786 10.7298C4.11786 10.7116 4.11167 10.694 4.10031 10.6798L3.74031 10.0598C3.73393 10.0542 3.72881 10.0473 3.72531 10.0395C3.72181 10.0318 3.72 10.0233 3.72 10.0148C3.72 10.0063 3.72181 9.9979 3.72531 9.99014C3.72881 9.98238 3.73393 9.97546 3.74031 9.96982L4.80031 8.89982C4.80031 8.89982 4.80031 8.89982 4.89031 8.89982L5.51031 9.26982C5.52292 9.28041 5.53885 9.28621 5.55531 9.28621C5.57177 9.28621 5.5877 9.28041 5.60031 9.26982L6.09031 9.06982C6.1057 9.06465 6.11939 9.05541 6.12996 9.04309C6.14052 9.03077 6.14755 9.01582 6.15031 8.99982C6.22031 8.76982 6.27031 8.53982 6.33031 8.30982C6.33031 8.25982 6.33031 8.23982 6.41031 8.24982H6.94031V5.24982H10.4003V3.06982H16.4003V7.79982H13.6403V9.52982H15.8803C15.6803 10.1098 15.4903 10.6798 15.3003 11.2598H13.6403V13.4098H15.7903V14.6698C15.7872 14.6896 15.7917 14.7098 15.8028 14.7265C15.8139 14.7432 15.8309 14.7551 15.8503 14.7598C16.0413 14.8279 16.202 14.9614 16.3042 15.1365C16.4064 15.3116 16.4434 15.5172 16.4087 15.717C16.374 15.9167 16.2698 16.0978 16.1146 16.2282C15.9594 16.3587 15.7631 16.4301 15.5603 16.4298C15.36 16.4234 15.1683 16.3472 15.0182 16.2144C14.8681 16.0816 14.7691 15.9006 14.7383 15.7026C14.7074 15.5046 14.7467 15.302 14.8493 15.1299C14.952 14.9578 15.1115 14.8269 15.3003 14.7598C15.3198 14.7551 15.3367 14.7432 15.3478 14.7265C15.3589 14.7098 15.3634 14.6896 15.3603 14.6698V13.8498H13.6303V13.9298C13.6303 14.1798 13.6303 14.4298 13.6303 14.6798C13.6303 14.6798 13.6303 14.7398 13.6903 14.7598C13.832 14.8087 13.9585 14.8939 14.0572 15.0068C14.1559 15.1197 14.2233 15.2564 14.2529 15.4034C14.2824 15.5504 14.273 15.7026 14.2256 15.8448C14.1781 15.987 14.0943 16.1144 13.9825 16.2143C13.8706 16.3141 13.7346 16.383 13.588 16.4141C13.4413 16.4452 13.289 16.4373 13.1463 16.3914C13.0035 16.3455 12.8753 16.263 12.7743 16.1522C12.6732 16.0415 12.6029 15.9062 12.5703 15.7598C12.5267 15.5536 12.5594 15.3385 12.6624 15.1546C12.7654 14.9706 12.9317 14.8304 13.1303 14.7598C13.1903 14.7598 13.2003 14.7598 13.2003 14.6498V13.8498H11.4803V14.6798C11.4803 14.6798 11.4803 14.7398 11.4803 14.7598C11.6727 14.8261 11.8354 14.9584 11.9394 15.1333C12.0434 15.3081 12.0821 15.5142 12.0485 15.7149C12.0149 15.9156 11.9113 16.0979 11.756 16.2293C11.6007 16.3608 11.4038 16.433 11.2003 16.433C10.9968 16.433 10.7999 16.3608 10.6446 16.2293C10.4893 16.0979 10.3857 15.9156 10.3521 15.7149C10.3185 15.5142 10.3572 15.3081 10.4612 15.1333C10.5653 14.9584 10.7279 14.8261 10.9203 14.7598C10.9803 14.7598 11.0003 14.7598 11.0003 14.6598C11.0003 14.2698 11.0003 13.8798 11.0003 13.4898V13.4198H13.2003V11.2598H11.0003C11.1903 10.6798 11.3903 10.1098 11.5803 9.52982H13.2003V7.80982H10.4003V5.64982H7.40031V8.23982H7.93031C7.99031 8.23982 8.01031 8.23982 8.02031 8.30982C8.07031 8.53982 8.13031 8.75982 8.19031 8.98982C8.19243 9.00766 8.20049 9.02425 8.21319 9.03695C8.22588 9.04965 8.24248 9.05771 8.26031 9.05982L8.74031 9.25982C8.75607 9.27199 8.77541 9.27859 8.79531 9.27859C8.81522 9.27859 8.83456 9.27199 8.85031 9.25982L9.45031 8.89982C9.4645 8.88846 9.48214 8.88227 9.50031 8.88227C9.51849 8.88227 9.53612 8.88846 9.55031 8.89982L10.5903 9.99982C10.5903 9.99982 10.5903 9.99982 10.5903 10.0998C10.5903 10.1998 10.3503 10.4998 10.2203 10.6998C10.2107 10.7165 10.2056 10.7355 10.2056 10.7548C10.2056 10.7741 10.2107 10.7931 10.2203 10.8098L10.4203 11.2898C10.4255 11.3052 10.4347 11.3189 10.447 11.3295C10.4594 11.34 10.4743 11.3471 10.4903 11.3498C10.7103 11.4198 10.9403 11.4698 11.1703 11.5298C11.2203 11.5298 11.2403 11.5298 11.2403 11.6198V13.1098C11.2403 13.1698 11.2403 13.1898 11.1703 13.1998L10.4903 13.3698C10.4725 13.3719 10.4559 13.38 10.4432 13.3927C10.4305 13.4054 10.4224 13.422 10.4203 13.4398L10.2203 13.9198C10.2104 13.9346 10.2051 13.952 10.2051 13.9698C10.2051 13.9876 10.2104 14.005 10.2203 14.0198L10.5803 14.6298C10.5803 14.6298 10.5803 14.6898 10.5803 14.7298L9.53031 15.7598C9.52379 15.7665 9.51602 15.7718 9.50743 15.7754C9.49884 15.779 9.48963 15.7808 9.48031 15.7808C9.471 15.7808 9.46178 15.779 9.4532 15.7754C9.44461 15.7718 9.43683 15.7665 9.43031 15.7598L8.82031 15.3898C8.80551 15.3799 8.78811 15.3747 8.77031 15.3747C8.75251 15.3747 8.73511 15.3799 8.72031 15.3898L8.23031 15.5898C8.20298 15.6057 8.18184 15.6304 8.17031 15.6598C8.11031 15.8898 8.05031 16.1198 8.00031 16.3498C8.00031 16.3998 8.00031 16.4098 7.92031 16.4098H6.41031C6.41031 16.4098 6.34031 16.4098 6.33031 16.3598C6.33031 16.1298 6.22031 15.8898 6.15031 15.6598C6.15031 15.6598 6.15031 15.6598 6.09031 15.5898L5.60031 15.3898C5.58663 15.3819 5.57111 15.3778 5.55531 15.3778C5.53951 15.3778 5.52399 15.3819 5.51031 15.3898C5.30031 15.4998 5.10031 15.6198 4.90031 15.7498C4.88612 15.7612 4.86849 15.7674 4.85031 15.7674C4.83214 15.7674 4.8145 15.7612 4.80031 15.7498L3.73031 14.6998C3.72393 14.6942 3.71881 14.6873 3.71531 14.6795C3.71181 14.6718 3.71 14.6633 3.71 14.6548C3.71 14.6463 3.71181 14.6379 3.71531 14.6301C3.71881 14.6224 3.72393 14.6155 3.73031 14.6098L4.08031 13.9998C4.08997 13.9831 4.09505 13.9641 4.09505 13.9448C4.09505 13.9255 4.08997 13.9065 4.08031 13.8898L3.87031 13.4098C3.85879 13.3804 3.83764 13.3557 3.81031 13.3398L3.09031 13.1598M10.8503 12.8298V11.8298L10.1903 11.6698C10.1705 11.6661 10.1522 11.6565 10.1379 11.6422C10.1236 11.6279 10.114 11.6097 10.1103 11.5898C10.0399 11.2927 9.92169 11.009 9.76031 10.7498C9.74895 10.7356 9.74276 10.718 9.74276 10.6998C9.74276 10.6816 9.74895 10.664 9.76031 10.6498C9.86031 10.4698 9.97031 10.2898 10.0803 10.1098C10.1903 9.92982 10.0803 10.0498 10.0803 10.0198L9.48031 9.42982C9.48031 9.42982 9.43031 9.42982 9.39031 9.42982L8.86031 9.74982C8.84246 9.76144 8.82162 9.76763 8.80031 9.76763C8.77901 9.76763 8.75817 9.76144 8.74031 9.74982C8.4842 9.59167 8.20378 9.4768 7.91031 9.40982C7.88901 9.40555 7.86968 9.39445 7.85525 9.37822C7.84081 9.36198 7.83206 9.34148 7.83031 9.31982C7.83031 9.10982 7.72031 8.88982 7.66031 8.66982H6.66031C6.66031 8.88982 6.55031 9.10982 6.50031 9.32982C6.50031 9.37982 6.50031 9.39982 6.42031 9.40982C6.12513 9.48126 5.84208 9.59583 5.58031 9.74982C5.56612 9.76118 5.54849 9.76737 5.53031 9.76737C5.51214 9.76737 5.4945 9.76118 5.48031 9.74982L5.00031 9.42982C5.00031 9.42982 4.94031 9.42982 4.91031 9.42982L4.31031 10.0298V10.0798L4.66031 10.6498C4.67193 10.6677 4.67812 10.6885 4.67812 10.7098C4.67812 10.7311 4.67193 10.752 4.66031 10.7698C4.50394 11.0233 4.38916 11.3001 4.32031 11.5898C4.31595 11.6138 4.30377 11.6356 4.28568 11.6519C4.26758 11.6682 4.24459 11.678 4.22031 11.6798L3.58031 11.8498V12.8498L4.24031 13.0098C4.25814 13.0119 4.27474 13.02 4.28744 13.0327C4.30014 13.0454 4.30819 13.062 4.31031 13.0798C4.39129 13.3798 4.50884 13.6686 4.66031 13.9398C4.67015 13.9508 4.67559 13.9651 4.67559 13.9798C4.67559 13.9946 4.67015 14.0088 4.66031 14.0198C4.58031 14.1698 4.49031 14.3198 4.40031 14.4698L4.31031 14.6198L4.96031 15.2698C4.96031 15.2698 4.96031 15.2698 5.04031 15.2698L5.58031 14.9498C5.59517 14.9358 5.61485 14.9279 5.63531 14.9279C5.65577 14.9279 5.67545 14.9358 5.69031 14.9498C5.89889 15.08 6.12432 15.1809 6.36031 15.2498C6.43031 15.2498 6.53031 15.2498 6.57031 15.3198C6.61031 15.3898 6.57031 15.4698 6.64031 15.5398L6.76031 16.0298H7.76031C7.82031 15.8098 7.88031 15.5898 7.93031 15.3698C7.93401 15.35 7.94363 15.3317 7.95791 15.3174C7.97219 15.3031 7.99046 15.2935 8.01031 15.2898C8.30174 15.2165 8.58122 15.102 8.84031 14.9498C8.85607 14.9377 8.87541 14.9311 8.89531 14.9311C8.91522 14.9311 8.93456 14.9377 8.95031 14.9498L9.48031 15.2698C9.4945 15.2812 9.51214 15.2874 9.53031 15.2874C9.54849 15.2874 9.56612 15.2812 9.58031 15.2698L10.1803 14.6598C10.1803 14.6598 10.1803 14.6598 10.1803 14.5798C10.1803 14.4998 9.97031 14.2198 9.86031 14.0498C9.84555 14.0333 9.83739 14.012 9.83739 13.9898C9.83739 13.9677 9.84555 13.9463 9.86031 13.9298C10.01 13.6766 10.1244 13.404 10.2003 13.1198C10.2003 13.0933 10.2108 13.0679 10.2296 13.0491C10.2484 13.0304 10.2738 13.0198 10.3003 13.0198L10.9403 12.8598M10.9403 7.40982H16.0003V3.48982H10.8303L10.9403 7.40982ZM11.6703 10.8698H15.0403C15.0495 10.8712 15.0589 10.8708 15.0679 10.8685C15.077 10.8663 15.0855 10.8622 15.0929 10.8566C15.1004 10.851 15.1066 10.844 15.1113 10.836C15.116 10.828 15.1191 10.8191 15.1203 10.8098C15.2003 10.5598 15.2803 10.3098 15.3703 10.0598C15.3663 10.04 15.3663 10.0196 15.3703 9.99982H11.9203C11.8603 9.99982 11.8403 9.99982 11.8303 10.0598C11.8203 10.1198 11.7303 10.3698 11.6703 10.5198C11.6103 10.6698 11.6003 10.7398 11.5603 10.8698M11.2603 15.1798C11.1753 15.1798 11.0921 15.205 11.0214 15.2523C10.9507 15.2995 10.8956 15.3667 10.863 15.4453C10.8305 15.5238 10.822 15.6103 10.8386 15.6937C10.8552 15.7771 10.8961 15.8537 10.9563 15.9139C11.0164 15.974 11.093 16.015 11.1764 16.0316C11.2598 16.0482 11.3463 16.0396 11.4249 16.0071C11.5034 15.9745 11.5706 15.9194 11.6178 15.8487C11.6651 15.778 11.6903 15.6949 11.6903 15.6098C11.6903 15.4958 11.645 15.3864 11.5644 15.3058C11.4837 15.2251 11.3744 15.1798 11.2603 15.1798ZM13.4203 15.1798C13.3063 15.1798 13.1969 15.2251 13.1163 15.3058C13.0356 15.3864 12.9903 15.4958 12.9903 15.6098C12.9903 15.7239 13.0356 15.8332 13.1163 15.9139C13.1969 15.9945 13.3063 16.0398 13.4203 16.0398C13.5353 16.0399 13.6457 15.9949 13.728 15.9145C13.8102 15.8341 13.8577 15.7248 13.8603 15.6098C13.8603 15.5534 13.8492 15.4974 13.8276 15.4453C13.806 15.3931 13.7743 15.3457 13.7344 15.3058C13.6944 15.2658 13.647 15.2342 13.5949 15.2126C13.5427 15.1909 13.4868 15.1798 13.4303 15.1798M15.5803 16.0398C15.6944 16.0398 15.8037 15.9945 15.8844 15.9139C15.965 15.8332 16.0103 15.7239 16.0103 15.6098C16.0103 15.4958 15.965 15.3864 15.8844 15.3058C15.8037 15.2251 15.6944 15.1798 15.5803 15.1798C15.4663 15.1798 15.3569 15.2251 15.2763 15.3058C15.1956 15.3864 15.1503 15.4958 15.1503 15.6098C15.1503 15.7239 15.1956 15.8332 15.2763 15.9139C15.3569 15.9945 15.4663 16.0398 15.5803 16.0398Z" fill="#363636"/>
<path d="M9.75031 12.34C9.75031 12.8523 9.59841 13.353 9.31382 13.7789C9.02923 14.2049 8.62472 14.5368 8.15146 14.7328C7.6782 14.9289 7.15744 14.9802 6.65503 14.8802C6.15262 14.7803 5.69112 14.5336 5.32891 14.1714C4.96669 13.8092 4.72002 13.3477 4.62008 12.8453C4.52014 12.3429 4.57143 11.8221 4.76747 11.3489C4.9635 10.8756 5.29546 10.4711 5.72139 10.1865C6.14731 9.9019 6.64806 9.75 7.16031 9.75C7.84722 9.75 8.506 10.0229 8.99172 10.5086C9.47744 10.9943 9.75031 11.6531 9.75031 12.34ZM5.00031 12.33C4.99833 12.7576 5.12333 13.1762 5.35947 13.5327C5.5956 13.8893 5.93226 14.1677 6.32676 14.3327C6.72127 14.4977 7.15589 14.5419 7.57555 14.4597C7.9952 14.3775 8.38101 14.1726 8.68409 13.8709C8.98718 13.5692 9.19389 13.1844 9.27805 12.7651C9.36221 12.3458 9.32002 11.911 9.15683 11.5157C8.99365 11.1205 8.7168 10.7825 8.36138 10.5447C8.00595 10.3069 7.58795 10.18 7.16031 10.18C6.58917 10.18 6.04128 10.4062 5.63649 10.8091C5.2317 11.212 5.00296 11.7589 5.00031 12.33Z" fill="#363636"/>
<path d="M15.5717 3.93018H11.2617V4.35018H15.5717V3.93018Z" fill="#363636"/>
<path d="M15.5717 4.79004H11.2617V5.21004H15.5717V4.79004Z" fill="#363636"/>
<path d="M15.5717 5.6499H11.2617V6.0699H15.5717V5.6499Z" fill="#363636"/>
<path d="M11.9005 6.52002H11.4805V6.94002H11.9005V6.52002Z" fill="#363636"/>
<path d="M12.7598 6.52002H12.3398V6.94002H12.7598V6.52002Z" fill="#363636"/>
<path d="M13.6409 6.50977H13.2109V6.92977H13.6409V6.50977Z" fill="#363636"/>
<path d="M14.4903 6.50977H14.0703V6.92977H14.4903V6.50977Z" fill="#363636"/>
<path d="M15.3497 6.50977H14.9297V6.92977H15.3497V6.50977Z" fill="#363636"/>
<path d="M7.15938 13.6298C6.90226 13.6298 6.65092 13.5535 6.43713 13.4107C6.22335 13.2679 6.05673 13.0648 5.95833 12.8273C5.85994 12.5897 5.83419 12.3283 5.88435 12.0762C5.93452 11.824 6.05833 11.5924 6.24014 11.4105C6.42195 11.2287 6.65358 11.1049 6.90576 11.0548C7.15793 11.0046 7.41932 11.0303 7.65686 11.1287C7.89441 11.2271 8.09744 11.3938 8.24029 11.6075C8.38313 11.8213 8.45938 12.0727 8.45938 12.3298C8.45938 12.6746 8.32241 13.0052 8.07861 13.249C7.83482 13.4928 7.50416 13.6298 7.15938 13.6298ZM6.29938 12.3298C6.29739 12.5023 6.34673 12.6714 6.44111 12.8158C6.53549 12.9602 6.67067 13.0733 6.82945 13.1407C6.98824 13.208 7.16347 13.2267 7.33289 13.1943C7.50231 13.1618 7.65826 13.0798 7.78093 12.9585C7.90361 12.8373 7.98747 12.6823 8.02185 12.5132C8.05624 12.3442 8.03961 12.1688 7.97406 12.0092C7.90852 11.8496 7.79702 11.7132 7.65374 11.6171C7.51047 11.5211 7.34187 11.4698 7.16938 11.4698C6.94036 11.4698 6.72057 11.5601 6.5577 11.7211C6.39483 11.8821 6.30201 12.1008 6.29938 12.3298Z" fill="#363636"/>
<path d="M18.15 0.75H1.35C1.01863 0.75 0.75 1.01863 0.75 1.35V18.15C0.75 18.4814 1.01863 18.75 1.35 18.75H18.15C18.4814 18.75 18.75 18.4814 18.75 18.15V1.35C18.75 1.01863 18.4814 0.75 18.15 0.75Z" stroke="#363636" stroke-width="1.5"/>
</g>
<defs>
<clipPath id="clip0_241_318">
<rect width="19.5" height="19.5" fill="white"/>
</clipPath>
</defs>
</svg>

<svg xmlns="http://www.w3.org/2000/svg" viewBox="0 0 19.5 19.5"><defs><style>.cls-1{fill:#4d4d4d;}.cls-2{fill:none;stroke:#4d4d4d;stroke-width:1.5px;}</style></defs><title>Ресурс 1</title><g id="Слой_2" data-name="Слой 2"><g id="Слой_1-2" data-name="Слой 1"><path class="cls-1" d="M3.07,13.15v-.06c0-.5,0-1,0-1.51,0-.05,0-.06.07-.08l.68-.17a.11.11,0,0,0,.08-.07c.06-.16.13-.32.2-.48a.08.08,0,0,0,0-.1l-.36-.62a.06.06,0,0,1,0-.09L4.8,8.9s0,0,.09,0l.62.37a.07.07,0,0,0,.09,0l.49-.2A.09.09,0,0,0,6.15,9c.07-.23.12-.46.18-.69,0-.05,0-.07.08-.06h.53v-3H10.4V3.07h6V7.8H13.64V9.53h2.24c-.2.58-.39,1.15-.58,1.73H13.64v2.15h2.15v1.26a.08.08,0,0,0,.06.09.86.86,0,0,1-.29,1.67.86.86,0,0,1-.26-1.67.08.08,0,0,0,.06-.09v-.82H13.63v.08c0,.25,0,.5,0,.75,0,0,0,.06.06.08a.86.86,0,1,1-1.12,1,.87.87,0,0,1,.56-1c.06,0,.07,0,.07-.11v-.8H11.48v.83s0,.06,0,.08a.86.86,0,1,1-.56,0c.06,0,.08,0,.08-.1,0-.39,0-.78,0-1.17v-.07H13.2V11.26H11c.19-.58.39-1.15.58-1.73H13.2V7.81H10.4V5.65h-3V8.24h.53c.06,0,.08,0,.09.07.05.23.11.45.17.68a.08.08,0,0,0,.07.07l.48.2a.09.09,0,0,0,.11,0l.6-.36a.08.08,0,0,1,.1,0L10.59,10s0,0,0,.1-.24.4-.37.6a.11.11,0,0,0,0,.11l.2.48a.09.09,0,0,0,.07.06c.22.07.45.12.68.18.05,0,.07,0,.07.09v1.49c0,.06,0,.08-.07.09l-.68.17a.08.08,0,0,0-.07.07l-.2.48a.09.09,0,0,0,0,.1l.36.61s0,.06,0,.1L9.53,15.76a.07.07,0,0,1-.1,0l-.61-.37a.09.09,0,0,0-.1,0l-.49.2a.14.14,0,0,0-.06.07c-.06.23-.12.46-.17.69,0,.05,0,.06-.08.06H6.41s-.07,0-.08-.05c0-.23-.11-.47-.18-.7,0,0,0,0-.06-.07l-.49-.2a.09.09,0,0,0-.09,0c-.21.11-.41.23-.61.36a.08.08,0,0,1-.1,0L3.73,14.7a.06.06,0,0,1,0-.09L4.08,14a.11.11,0,0,0,0-.11l-.21-.48a.14.14,0,0,0-.06-.07l-.72-.18h0m7.76-.33v-1l-.66-.16a.1.1,0,0,1-.08-.08,2.82,2.82,0,0,0-.35-.84.08.08,0,0,1,0-.1c.1-.18.21-.36.32-.54s0-.06,0-.09l-.6-.59s-.05,0-.09,0l-.53.32a.11.11,0,0,1-.12,0,2.74,2.74,0,0,0-.83-.34.1.1,0,0,1-.08-.09c0-.21-.11-.43-.17-.65h-1c0,.22-.11.44-.16.66,0,.05,0,.07-.08.08a3.09,3.09,0,0,0-.84.34.08.08,0,0,1-.1,0L5,9.43s-.06,0-.09,0l-.6.6,0,.05.35.57a.11.11,0,0,1,0,.12,2.79,2.79,0,0,0-.34.82.11.11,0,0,1-.1.09l-.64.17v1l.66.16a.08.08,0,0,1,.07.07,3.79,3.79,0,0,0,.35.86.06.06,0,0,1,0,.08c-.08.15-.17.3-.26.45l-.09.15.65.65s0,0,.08,0l.54-.32a.08.08,0,0,1,.11,0,2.69,2.69,0,0,0,.67.3c.07,0,.17,0,.21.07s0,.15.07.22l.12.49h1c.06-.22.12-.44.17-.66a.1.1,0,0,1,.08-.08,3.16,3.16,0,0,0,.83-.34.09.09,0,0,1,.11,0l.53.32a.08.08,0,0,0,.1,0l.6-.61s0,0,0-.08-.21-.36-.32-.53a.09.09,0,0,1,0-.12,3.23,3.23,0,0,0,.34-.81.1.1,0,0,1,.1-.1l.64-.16m0-5.45H16V3.49H10.83Zm.73,3.46h3.37a.07.07,0,0,0,.08-.06c.08-.25.16-.5.25-.75a.15.15,0,0,1,0-.06H11.92c-.06,0-.08,0-.09.06s-.1.31-.16.46-.07.22-.11.35m-.3,4.31a.43.43,0,1,0,.43.43.43.43,0,0,0-.43-.43m2.16,0a.43.43,0,0,0,0,.86.44.44,0,0,0,.44-.43.43.43,0,0,0-.43-.43m2.15.86a.43.43,0,1,0,0-.86.43.43,0,0,0,0,.86"/><path class="cls-1" d="M9.75,12.34A2.59,2.59,0,1,1,7.16,9.75a2.59,2.59,0,0,1,2.59,2.59M5,12.33a2.16,2.16,0,1,0,2.16-2.15A2.16,2.16,0,0,0,5,12.33"/><rect class="cls-1" x="11.26" y="3.93" width="4.31" height="0.42"/><rect class="cls-1" x="11.26" y="4.79" width="4.31" height="0.42"/><rect class="cls-1" x="11.26" y="5.65" width="4.31" height="0.42"/><rect class="cls-1" x="11.48" y="6.52" width="0.42" height="0.42"/><rect class="cls-1" x="12.34" y="6.52" width="0.42" height="0.42"/><rect class="cls-1" x="13.21" y="6.51" width="0.43" height="0.42"/><rect class="cls-1" x="14.07" y="6.51" width="0.42" height="0.42"/><rect class="cls-1" x="14.93" y="6.51" width="0.42" height="0.42"/><path class="cls-1" d="M7.16,13.63a1.3,1.3,0,1,1,1.3-1.3,1.3,1.3,0,0,1-1.3,1.3m-.86-1.3a.87.87,0,1,0,.87-.86.87.87,0,0,0-.87.86"/><rect class="cls-2" x="0.75" y="0.75" width="18" height="18" rx="0.6"/></g></g></svg>
